X:1
T:Title
%%score { ( 1 4 ) | ( 2 3 ) }
L:1/8
Q:1/4=100
M:4/4
K:F
V:1 treble nm="Grand Piano"
V:4 treble 
V:2 bass 
V:3 bass 
V:1
 AAAA A2 GF | [DG][DF][DF][B,D] [CF]4 | [EG][EG][EG][FA] [GB]2 [FA][EG] | [FA][FA][F=B][FB] [Ec]4 | %4
w: Lida~Shivers~Leech * * * * * *||||
 AAAA A2 GF | [DG][DF][DF]D F2 CC | F>F F[EG] A<c c[Fd] |[M:3/4] .[A,FA]2 .[CEG]2 [A,F]2 | %8
w: ||||
[M:1/4] [CFA][CGB] |[M:4/4] [Ac]2 [Bd]2 [Ac]2 FG | A2 B2 A4 | AAAA G2 cd |[M:3/4] e2 d2 cB | %13
w: |||||
[M:1/4] A[GB] |[M:4/4] [Ac]2 [Bd]2 [Ac]2 FG | A2 B2 A4 | [DG][DA][DB][Fd] c<A cd | %17
w: ||||
 [FA]2 [EG]2 F4 |] %18
w: |
V:2
 [F,CF][F,CF][F,CF][F,CF] [F,CF]2 [F,B,F][F,A,] | [B,,B,][B,,B,][B,,B,][B,,F,] [F,A,]4 | %2
 [C,C][C,C][C,C][C,C] [C,C]2 [C,C][C,C] | [F,C][F,C][D,G,][D,G,] [C,C]4 | %4
 [F,CF][F,CF][F,CF][F,CF] [F,CF]2 [F,B,F][F,A,] | %5
 [B,,B,][B,,B,][B,,B,][B,,F,B,] [F,A,C]2 [F,A,][F,A,] | %6
 [F,A,C]>[F,A,C] [F,A,C][C,C] [F,CF]<[F,A,F] [F,A,F][B,,B,] |[M:3/4] z/ C3/2 z/ B,3/2 F,2 | %8
[M:1/4] F,F, |[M:4/4] [F,F]2 [F,F]2 [F,F]2 [F,A,][F,B,F] | [F,CF]2 [F,DF]2 [F,CF]4 | %11
 [F,CF][F,CF][^F,C_E][F,CE][K:treble] [G,C=E]2 [G,CE][G,=B,F] | %12
[M:3/4] [G,CG]2 [G,=B,F]2[K:bass] [C,C]2 |[M:1/4] [F,CF][F,C] | %14
[M:4/4] [F,F]2 [F,F]2 [F,F]2 [F,A,][F,B,F] | [F,CF]2 [F,DF]2 [F,CF]4 | %16
 [B,,B,][B,,B,][B,,B,][B,,B,] [F,A,F]<[F,CF] [F,A,F][F,B,F] | [C,C]2 [C,B,]2 [F,A,]4 |] %18
V:3
 x8 | x8 | x8 | x8 | x8 | x8 | x8 |[M:3/4] C,2 C,2 z2 |[M:1/4] x2 |[M:4/4] x8 | x8 | %11
 x4[K:treble] x4 |[M:3/4] x4[K:bass] x2 |[M:1/4] x2 |[M:4/4] x8 | x8 | x8 | x8 |] %18
V:4
 x8 | x8 | x8 | x8 | x8 | x8 | x8 |[M:3/4] x6 |[M:1/4] x2 |[M:4/4] x8 | x8 | x8 |[M:3/4] z2 z2 E2 | %13
[M:1/4] x2 |[M:4/4] x8 | x8 | x8 | x8 |] %18

